src/icons/hds/ui/envelope.svg

<svg viewBox="0 0 24 24" role="img" xmlns="http://www.w3.org/2000/svg"><g fill="none" fill-rule="evenodd"><path d="M0 0h24v24H0z"/><path d="M22 4v16H2V4h20zm-7.862 9.436L12 15.338l-2.14-1.902L4.536 18h14.927l-5.325-4.564zM20 8.226l-4.353 3.869L20 15.826v-7.6zM4 8.227v7.598l4.352-3.73L4 8.227zM19.493 6H4.505L12 12.661 19.493 6z" fill="currentColor"/></g></svg>

<svg xmlns="http://www.w3.org/2000/svg" width="24" height="24" viewBox="0 0 24 24">
  <g fill="none" fill-rule="evenodd">
    <rect width="24" height="24"/>
    <path fill="currentColor" d="M22,4 L22,20 L2,20 L2,4 L22,4 Z M14.138,13.436 L12,15.337955 L9.86,13.436 L4.536,18 L19.463,18 L14.138,13.436 Z M20,8.226 L15.647,12.095 L20,15.826 L20,8.226 Z M4,8.227 L4,15.825 L8.352,12.095 L4,8.227 Z M19.493,6 L4.505,6 L12,12.661 L19.493,6 Z"/>
  </g>
</svg>
